www/images/vector/logos/kiva.svg

<svg width="184" height="98" viewBox="0 0 184 98" xmlns="http://www.w3.org/2000/svg"><title>Imported Layers</title><desc>Created with Sketch.</desc><g fill="none" fill-rule="evenodd"><g fill="#000"><path d="M22.99 89.756h14C35.016 55.466 21.466 24.286.175.06c14.657 23.083 23.15 50.463 23.15 79.836 0 3.316-.12 6.6-.334 9.86"/><path d="M70.318 33.858s-4.396 6.077-16.81 6.983c-12.41.905-15.514 12.413-16.422 16.034-.902 3.62-4.472 4.575-4.472 4.575l.335 1.34s4.026-1.377 5.3-3.976c1.278-2.606 5.174 1.644 13.576-2.606 8.406-4.25 17.328-11.617 18.492-22.35"/><path d="M32.95 62.79s4.914 4.554 8.018 5.463c3.103.905 31.03 1.16 38.784 29.347 0 .65-2.064-3.488-16.934-5.558-14.87-2.065-21.85-8.793-23.79-22.24 0 0-2.517-3.803-5.33-3.803-.75.75-.75-3.21-.75-3.21"/><path d="M83.553 38.683h6.412V91.04h-6.412V38.682z"/><path d="M122.857 91.04h-6.865l-19.31-52.357h6.94l15.763 44.438 15.846-44.437h6.866l-19.24 52.356"/><path d="M183.748 91.04h-6.414V71.573h-24.138V91.04h-6.414V55.884c0-10.413 7.843-18.486 18.48-18.486 10.713 0 18.486 8.072 18.486 18.485V91.04zm-6.414-35.155c0-6.79-4.977-12.374-12.07-12.374-6.87 0-12.068 5.584-12.068 12.375v9.507h24.138v-9.507z"/></g></g></svg>

<?xml version="1.0" encoding="UTF-8" standalone="no"?>
<svg width="184px" height="98px" viewBox="0 0 184 98" version="1.1" xmlns="http://www.w3.org/2000/svg" xmlns:xlink="http://www.w3.org/1999/xlink" xmlns:sketch="http://www.bohemiancoding.com/sketch/ns">
    <!-- Generator: Sketch 3.2.2 (9983) - http://www.bohemiancoding.com/sketch -->
    <title>Imported Layers</title>
    <desc>Created with Sketch.</desc>
    <defs></defs>
    <g id="Page-1" stroke="none" stroke-width="1" fill="none" fill-rule="evenodd" sketch:type="MSPage">
        <g id="Imported-Layers" sketch:type="MSLayerGroup" fill="#000000">
            <path d="M22.99,89.756 L36.991,89.756 C35.015,55.467 21.465,24.286 0.174,0.061 C14.831,23.143 23.324,50.523 23.324,79.896 C23.324,83.212 23.204,86.495 22.99,89.756" id="Fill-1" sketch:type="MSShapeGroup"></path>
            <path d="M70.318,33.858 C70.318,33.858 65.922,39.935 53.509,40.841 C41.098,41.745 37.994,53.253 37.086,56.874 C36.184,60.493 32.614,61.449 32.614,61.449 L32.949,62.79 C32.949,62.79 36.976,61.413 38.25,58.814 C39.528,56.208 43.424,60.458 51.826,56.208 C60.232,51.959 69.154,44.591 70.318,33.858" id="Fill-2" sketch:type="MSShapeGroup"></path>
            <path d="M32.949,62.79 C32.949,62.79 37.864,67.344 40.968,68.253 C44.071,69.158 71.999,69.414 79.752,97.6 C79.752,98.249 77.688,94.112 62.818,92.042 C47.947,89.977 40.968,83.249 39.028,69.803 C39.028,69.803 36.511,65.999 33.697,65.999 C32.949,66.751 32.949,62.79 32.949,62.79" id="Fill-3" sketch:type="MSShapeGroup"></path>
            <path d="M83.553,38.683 L89.965,38.683 L89.965,91.039 L83.553,91.039 L83.553,38.683 Z" id="Fill-4" sketch:type="MSShapeGroup"></path>
            <path d="M122.857,91.039 L115.992,91.039 L96.681,38.683 L103.622,38.683 L119.385,83.121 L135.231,38.683 L142.096,38.683 L122.857,91.039" id="Fill-5" sketch:type="MSShapeGroup"></path>
            <path d="M183.748,91.039 L177.334,91.039 L177.334,71.574 L153.196,71.574 L153.196,91.039 L146.782,91.039 L146.782,55.885 C146.782,45.472 154.625,37.399 165.263,37.399 C175.975,37.399 183.748,45.472 183.748,55.885 L183.748,91.039 L183.748,91.039 Z M177.334,55.885 C177.334,49.094 172.357,43.511 165.263,43.511 C158.395,43.511 153.196,49.094 153.196,55.885 L153.196,65.392 L177.334,65.392 L177.334,55.885 L177.334,55.885 Z" id="Fill-6" sketch:type="MSShapeGroup"></path>
        </g>
    </g>
</svg>
